resources/svg/instagram.svg

<svg width="19" height="19" viewBox="0 0 19 19" fill="none" xmlns="http://www.w3.org/2000/svg">
<g id="mdi:instagram">
<path id="Vector" d="M6.55409 1.87384H12.9602C15.4006 1.87384 17.3834 3.85667 17.3834 6.29707V12.7031C17.3834 13.8763 16.9174 15.0013 16.0879 15.8308C15.2583 16.6604 14.1333 17.1264 12.9602 17.1264H6.55409C4.11369 17.1264 2.13086 15.1435 2.13086 12.7031V6.29707C2.13086 5.12396 2.59688 3.99889 3.42639 3.16938C4.25591 2.33986 5.38098 1.87384 6.55409 1.87384ZM6.40157 3.39909C5.67343 3.39909 4.97511 3.68835 4.46024 4.20322C3.94536 4.71809 3.65611 5.41641 3.65611 6.14455V12.8557C3.65611 14.3733 4.88394 15.6011 6.40157 15.6011H13.1127C13.8408 15.6011 14.5391 15.3119 15.054 14.797C15.5689 14.2821 15.8581 13.5838 15.8581 12.8557V6.14455C15.8581 4.62692 14.6303 3.39909 13.1127 3.39909H6.40157ZM13.7609 4.54303C14.0137 4.54303 14.2562 4.64347 14.435 4.82224C14.6138 5.00102 14.7142 5.24349 14.7142 5.49632C14.7142 5.74914 14.6138 5.99161 14.435 6.17039C14.2562 6.34916 14.0137 6.4496 13.7609 6.4496C13.5081 6.4496 13.2656 6.34916 13.0868 6.17039C12.9081 5.99161 12.8076 5.74914 12.8076 5.49632C12.8076 5.24349 12.9081 5.00102 13.0868 4.82224C13.2656 4.64347 13.5081 4.54303 13.7609 4.54303ZM9.75712 5.68697C10.7684 5.68697 11.7383 6.08871 12.4534 6.80381C13.1685 7.51891 13.5703 8.4888 13.5703 9.50011C13.5703 10.5114 13.1685 11.4813 12.4534 12.1964C11.7383 12.9115 10.7684 13.3132 9.75712 13.3132C8.74582 13.3132 7.77593 12.9115 7.06083 12.1964C6.34573 11.4813 5.94399 10.5114 5.94399 9.50011C5.94399 8.4888 6.34573 7.51891 7.06083 6.80381C7.77593 6.08871 8.74582 5.68697 9.75712 5.68697ZM9.75712 7.21223C9.15034 7.21223 8.56841 7.45327 8.13935 7.88233C7.71029 8.31139 7.46924 8.89332 7.46924 9.50011C7.46924 10.1069 7.71029 10.6888 8.13935 11.1179C8.56841 11.5469 9.15034 11.788 9.75712 11.788C10.3639 11.788 10.9458 11.5469 11.3749 11.1179C11.804 10.6888 12.045 10.1069 12.045 9.50011C12.045 8.89332 11.804 8.31139 11.3749 7.88233C10.9458 7.45327 10.3639 7.21223 9.75712 7.21223Z" fill="white"/>
</g>
</svg>

<svg xmlns="http://www.w3.org/2000/svg" fill="none" viewBox="0 0 19 19">
  <path fill="currentColor" d="M6.554 1.874h6.406a4.426 4.426 0 0 1 4.423 4.423v6.406a4.423 4.423 0 0 1-4.423 4.423H6.554a4.426 4.426 0 0 1-4.423-4.423V6.297a4.423 4.423 0 0 1 4.423-4.423Zm-.152 1.525a2.745 2.745 0 0 0-2.746 2.746v6.71a2.744 2.744 0 0 0 2.746 2.746h6.71a2.745 2.745 0 0 0 2.746-2.745V6.145a2.744 2.744 0 0 0-2.745-2.746H6.402Zm7.359 1.144a.953.953 0 1 1 0 1.907.953.953 0 0 1 0-1.907ZM9.757 5.687a3.813 3.813 0 1 1 0 7.626 3.813 3.813 0 0 1 0-7.626Zm0 1.525a2.288 2.288 0 1 0 0 4.576 2.288 2.288 0 0 0 0-4.576Z"/>
</svg>
